packages/fxa-settings/src/components/ConnectedServices/web.svg

<svg width="24" height="24" viewBox="0 0 24 24" fill="none" xmlns="http://www.w3.org/2000/svg">
<path fill-rule="evenodd" clip-rule="evenodd" d="M0 12C0 5.37258 5.37258 0 12 0C18.6243 0.00743983 23.9926 5.37567 24 12C24 18.6274 18.6274 24 12 24C5.37258 24 0 18.6274 0 12ZM17.4165 7.437H19.7445C18.827 5.88668 17.4674 4.64566 15.84 3.873C16.5636 4.96313 17.0967 6.16828 17.4165 7.437ZM21 12C20.9979 13.0002 20.828 13.993 20.4975 14.937H17.766C17.922 13.9658 18.0002 12.9837 18 12C18.0002 11.0163 17.922 10.0342 17.766 9.063H20.4975C20.828 10.007 20.9979 10.9998 21 12ZM8.1495 16.563C8.9445 19.2 10.3875 21 12 21C13.6125 21 15.0555 19.2 15.852 16.563H8.1495ZM7.761 14.937C7.41238 12.9945 7.41238 11.0055 7.761 9.063H16.2375C16.4116 10.0323 16.4994 11.0152 16.5 12C16.4999 12.9848 16.4126 13.9676 16.239 14.937H7.761ZM3.5025 9.063C3.17196 10.007 3.00211 10.9998 3 12C3.00211 13.0002 3.17196 13.993 3.5025 14.937H6.234C5.92188 12.9914 5.92188 11.0086 6.234 9.063H3.5025ZM12 3C13.6125 3 15.0555 4.8 15.8505 7.437H8.1495C8.9445 4.8 10.3875 3 12 3ZM6.5835 7.437C6.90334 6.16828 7.43642 4.96313 8.16 3.873C6.53262 4.64566 5.17304 5.88668 4.2555 7.437H6.5835ZM4.26 16.563H6.5835C6.90334 17.8317 7.43642 19.0369 8.16 20.127C6.53262 19.3543 5.17304 18.1133 4.2555 16.563H4.26ZM15.8466 20.1239C15.8459 20.1249 15.8452 20.126 15.8445 20.127H15.84C15.8422 20.126 15.8444 20.1249 15.8466 20.1239ZM15.8466 20.1239C17.4727 19.3517 18.8315 18.1119 19.749 16.563H17.421C17.1015 17.8305 16.5691 19.0346 15.8466 20.1239Z" fill="#20123A"/>
</svg>

<svg width="24" height="24" fill="none" xmlns="http://www.w3.org/2000/svg"><path fill-rule="evenodd" clip-rule="evenodd" d="M0 12C0 5.373 5.373 0 12 0c6.624.007 11.993 5.376 12 12 0 6.627-5.373 12-12 12S0 18.627 0 12zm17.416-4.563h2.328a9.045 9.045 0 00-3.904-3.564 11.549 11.549 0 011.576 3.564zM21 12a8.945 8.945 0 01-.503 2.937h-2.731a18.495 18.495 0 000-5.874h2.732c.33.944.5 1.937.502 2.937zM8.15 16.563C8.944 19.2 10.386 21 12 21s3.056-1.8 3.852-4.437H8.149zm-.389-1.626a16.626 16.626 0 010-5.874h8.477a16.671 16.671 0 01.001 5.874H7.761zM3.503 9.063C3.172 10.007 3.003 11 3 12c.002 1 .172 1.993.502 2.937h2.732a18.542 18.542 0 010-5.874H3.502zM12 3c1.613 0 3.056 1.8 3.85 4.437h-7.7C8.944 4.8 10.386 3 12 3zM6.583 7.437A11.55 11.55 0 018.16 3.873a9.045 9.045 0 00-3.905 3.564h2.329zM4.26 16.563h2.324a11.55 11.55 0 001.576 3.564 9.045 9.045 0 01-3.905-3.564h.005zm11.587 3.56l-.002.004h-.005l.007-.003zm0 0a9.046 9.046 0 003.902-3.56h-2.328a11.55 11.55 0 01-1.574 3.56z" fill="#20123A"/></svg>
